res/Images/thermal-palette.svg

<?xml version="1.0" encoding="utf-8"?>
<!-- Generator: Adobe Illustrator 23.0.4, SVG Export Plug-In . SVG Version: 6.00 Build 0)  -->
<svg version="1.1" id="Layer_1" xmlns="http://www.w3.org/2000/svg" xmlns:xlink="http://www.w3.org/1999/xlink" x="0px" y="0px"
	 viewBox="0 0 288 288" style="enable-background:new 0 0 288 288;" xml:space="preserve">
<style type="text/css">
	.st0{fill:#FFFFFF;}
</style>
<path class="st0" d="M79.2,0h-72C5.3,0,3.5,0.8,2.1,2.1C0.8,3.5,0,5.3,0,7.2v273.6c0,1.9,0.8,3.8,2.1,5.1c1.4,1.4,3.2,2.1,5.1,2.1
	h72c1.9,0,3.7-0.8,5.1-2.1c1.4-1.3,2.1-3.2,2.1-5.1V7.2c0-1.9-0.8-3.8-2.1-5.1C82.9,0.8,81.1,0,79.2,0z M43.2,259.2
	c-5.8,0-11.1-3.5-13.3-8.9c-2.2-5.4-1-11.6,3.1-15.7c4.1-4.1,10.3-5.3,15.7-3.1c5.4,2.2,8.9,7.5,8.9,13.3
	C57.6,252.7,51.2,259.2,43.2,259.2L43.2,259.2z"/>
<path class="st0" d="M280.8,201.6h-63l-117,67.6V288h180c1.9,0,3.8-0.8,5.1-2.1c1.4-1.4,2.1-3.2,2.1-5.1v-72c0-1.9-0.8-3.7-2.1-5.1
	C284.5,202.4,282.7,201.6,280.8,201.6L280.8,201.6z"/>
<path class="st0" d="M130.3,235.5L278,150.2c3.4-2,4.6-6.4,2.6-9.8l-36-62.4v0c-2-3.4-6.4-4.6-9.8-2.6l-18.1,10.4L130.3,235.5z"/>
<path class="st0" d="M219.6,37.6l-62.4-36c-3.4-2-7.8-0.8-9.8,2.6L100.8,85v172.8L222.2,47.5c1-1.6,1.2-3.6,0.7-5.5
	C222.5,40.1,221.3,38.6,219.6,37.6L219.6,37.6z"/>
</svg>

<svg width="288" height="288" viewBox="0 0 288 288" fill="none" xmlns="http://www.w3.org/2000/svg">
<path d="M79.2 0H7.2C5.3 0 3.5 0.8 2.1 2.1C0.8 3.5 0 5.3 0 7.2V280.8C0 282.7 0.8 284.6 2.1 285.9C3.5 287.3 5.3 288 7.2 288H79.2C81.1 288 82.9 287.2 84.3 285.9C85.7 284.6 86.4 282.7 86.4 280.8V7.2C86.4 5.3 85.6 3.4 84.3 2.1C82.9 0.8 81.1 0 79.2 0ZM43.2 259.2C37.4 259.2 32.1 255.7 29.9 250.3C27.7 244.9 28.9 238.7 33 234.6C37.1 230.5 43.3 229.3 48.7 231.5C54.1 233.7 57.6 239 57.6 244.8C57.6 252.7 51.2 259.2 43.2 259.2Z" fill="white"/>
<path d="M280.8 201.6H217.8L100.8 269.2V288H280.8C282.7 288 284.6 287.2 285.9 285.9C287.3 284.5 288 282.7 288 280.8V208.8C288 206.9 287.2 205.1 285.9 203.7C284.5 202.4 282.7 201.6 280.8 201.6Z" fill="white"/>
<path d="M130.3 235.5L278 150.2C281.4 148.2 282.6 143.8 280.6 140.4L244.6 78C242.6 74.6 238.2 73.4 234.8 75.4L216.7 85.8L130.3 235.5Z" fill="white"/>
<path d="M219.6 37.6L157.2 1.60002C153.8 -0.399984 149.4 0.800016 147.4 4.20002L100.8 85V257.8L222.2 47.5C223.2 45.9 223.4 43.9 222.9 42C222.5 40.1 221.3 38.6 219.6 37.6Z" fill="white"/>
</svg>
